X:1
T:[ID 11-28c]
T:[ID 11-28c]
T:Bezeichnung standardisiert: Walzer Nr 9 Walzer
T:Urheber unbekannt Datum in der hier transkribierten schriftlichen Quelle: vermutlich um 1800
C:Urheber unbekannt
C:Datum in der hier transkribierten schriftlichen Quelle: vermutlich um 1800
L:1/8
M:3/8
K:C
V:1 treble 
V:1
 G | e2 c | G2 c | e2 c | a/g/f/e/d/c/ | d2 (e/f/) | G2 (A/B/) | c/B/c/e/d/B/ | c2 :: (B/c/) | %10
 d/^c/d/c/d | g/^f/g/f/g | e/d/e/d/e | c/B/c/B/c | d/c/d/c/d | g/f/g/f/g | e/g/e/c/d/B/ | c2 :: G | %19
 e2 d | cBc | cBc | (^cd)G | fed | agf | ee/g/f/d/ | dc :| %27

